X: 8788
T: Cuckoo's Nest, The
R: barndance
M: 4/4
K: Eminor
|:F2|GAGF E2 e2|B2 B2 A2 B2|FAFE D2 EF|G2 A2 E3 F|
GAGF E2 e2|B2 B2 A2 B2|FAFE D2 EF|G2 A2 E2:|
|:d2|e2 e2 e2 fe|^d2 B2 B3 ^c|d2 d2 d2 ed|^c2 A2 A4|
GAGF E2 e2|B2 B2 A2 B2|FAFE D2 EF|G2 A2 E2:|

